X: 21
T: IF ALL THE WORLD WERE PAPER
B: "FIFTY OLD ENGLISH FOLK DANCE AIRS", Edgar H. Hunt ed., Schott & Co. Ltd. pub., London 1939
Z: 2004-2014 John Chambers <jc:trillian.mit.edu>
M: 6/8
L: 1/8
K: C
G |\
(A2G) (A2B) |  c3   C3  | (E2D) (E2F) | G3- G2E |\
(F2E) (F2G) | (A2F) D2c | (d2G) (A2B) | c3- c2 |]

%%sep 1 1 500
%%sep 1 1 500
